X:19
T:Rosestock, Holderblh...
R:
O:Deutschland
A:Schwbisches Tanzliedchen
S:
B:Frau Nachtigall (Straburg - 1928)
Z:<anamnese@laposte.net> -- http://anamnese.fr.st
N:p.50
M:3/4
L:1/4
Q:1/4=100
K:C
&quot;C&quot; e3/2 d/ c/E/ |&quot;G7&quot; A G/F/ D |&quot;G7&quot; A G/F/ D |&quot;C&quot; A G/E/ C | 
&quot;C&quot; e3/2 d/ c/E/ |&quot;G7&quot; A G/F/ D |&quot;G7&quot; G A B |&quot;C&quot; c2 z |
&quot;G&quot; d/ c/ d2 |&quot;C&quot; e/ d/ c2 |&quot;G7&quot; GAB |&quot;C&quot; c/ B/ c/ d/ e |
&quot;G&quot; f/ e/ d2 |&quot;C&quot; e/ d/ c2 |&quot;G7&quot; GAB |&quot;C&quot; c2 z |]
